X: 21619
T: Killavil Postman, The
R: barndance
M: 4/4
K: Gmajor
Bc|d2 g2- g2 e2|dedc BAGE|D2 G2 G2 A2|B4 B3 c|
d2 g2 g2 e2|dedc BA G/F/E|D2 a2- a2 b2|a4 a4|
g2 b2 g3 e|dedc BAGE|D2 G2- G2 A2|B4 B2 d2|
e2 e2 cB A2|d2 d2 BAGE|D2 G2 G2 A2|G4- G2||
a2|b2 b2 gf e2|b2 b2 gf e2|b2 b2- b2 c'2|b4 g4|
a2 a2 fe d2|a2 a2 fed/e/f|a2 a2- a2 b2|f4- f4|
b2 b2 gfeg|b2 b2 gf e2|b2 b2- b2 c'2|b4 g4|
.b2 .b2 .a2 .a2|.g2 .g2 f4|f2 ag fgag|f/g/f e2 d2||

